X: 10601
T: Dougie McDonald's
R: reel
M: 4/4
K: Edorian
|:B,DEF G2FE|DEFG A2GA|BAGB AFdF|cFBF AFED|
B,DEF G2FE|DEFG A2GA|BAGA ADFA|1 dBAF E3D:|2 dBAF E2Bd||
|:eBBe-eBeB|dBAF DFAd|eBBe-eBeB|dBAF E2Bd|
eBBe-eBeB|dBAF DFGA|BAGA ADFA|1 dBAF E2Bd:|2 dBAF E3D||

